icon-themes/sifr_svg/cmd/sc_fullscreen.svg

<svg viewBox="0 0 16 16" xmlns="http://www.w3.org/2000/svg"><path d="m0 2v12h7v1h-1v1h4v-1h-1v-1h7v-12zm2 2h12v8h-12zm1 1v6h4v-2h-2v-2h2v-2zm6 0v2h2v2h-2v2h4v-6z" fill="#555753"/></svg>

<svg xmlns="http://www.w3.org/2000/svg" viewBox="0 0 16 16">
  <path
     style="fill:#555753"
     d="M 0 2 L 0 14 L 7 14 L 7 15 L 6 15 L 6 16 L 10 16 L 10 15 L 9 15 L 9 14 L 16 14 L 16 2 L 0 2 z M 2 4 L 14 4 L 14 12 L 2 12 L 2 4 z M 3 5 L 3 11 L 7 11 L 7 9 L 5 9 L 5 7 L 7 7 L 7 5 L 3 5 z M 9 5 L 9 7 L 11 7 L 11 9 L 9 9 L 9 11 L 13 11 L 13 5 L 9 5 z "
     />
</svg>
